!!!!SEGMENT: pl-wn--mus-iii-601--004-002_janiewicz-feliks--ive-trio-adagio.krn
!!!cenid: 17xx:2397
!!!COM: Janiewicz, Feliks
!!!COM-rismID: pe30011012
!!!CDT: 1762-1848
!!!CNT:
!!!OPR: Ive Trio
!!!OTL: Adagio
!!!OMV: 002
!!!PDT:
!!!AGN:
!!!SMS-siglum: PL-Wn
!!!SMS-shelfmark: Mus.III.601
!!!SMS-shelfwork: 004-002 M
!!!SMS-variant:
!!!SMS-altvar:
!!!NIFC-rismSourceID: 990069598
!!!NIFC-islandoraID:
!!!URL-pdf-islandora:
!!!URL-scan: https://polona.pl/item/six-trios-pour-deux-violons-basse,MTAxMDA3MzY2/0/#item @EN{Scan on Polona} @PL{Skany w portalu Polona}
!!!ONB-nifc: UWAGA: źródło zawiera 6 Trio na 2 skrzypiec i wiolonczelę. Violino Primo (od skanu 3), Violino Secondo (od skanu 37), Basso (od skanu 61). Basso to partia wiolonczeli. Części Ie Trio: 1. Allegro moderato, 2. Adagio, 3. Polonese/Allegretto
!!!AIN: 1 cello 2 violn
!!!key: E-
**kern	**dynam	**kern	**dynam	**kern	**dynam
*part3	*part3	*part2	*part2	*part1	*part1
*staff3	*	*staff2	*	*staff1	*
*I"BASSO	*	*I"VIOLINO SECONDO	*	*I"VIOLINO PRIMO	*
*I'vlc	*	*I'vl II	*	*I'vl I	*
*ICstr	*	*ICstr	*	*ICstr	*
*Icello	*	*Ivioln	*	*Ivioln	*
*clefF4	*	*clefG2	*	*clefG2	*
*k[b-e-a-]	*	*k[b-e-a-]	*	*k[b-e-a-]	*
*E-:	*	*E-:	*	*E-:	*
*M2/4	*	*M2/4	*	*M2/4	*
=1	=1	=1	=1	=1	=1
*	*	*	*	*^	*
!LO:TX:a:B:t=Adagio	!	!LO:TX:a:B:t=Adagio	!	!LO:TX:a:B:t=Adagio	!	!LO:DY:b:t=F
4E-\	.	4B-/ 4g	p	4ee-\	4ee-/	f
4BB-/	.	4B-/ 4a-	.	8.ff\L	8.ryy	.
.	.	.	.	16gg\Jk	16ryy	.
*	*	*	*	*v	*v	*
=2	=2	=2	=2	=2	=2
!LO:TX:t=P:problem:mixed beam	!	!	!	!	!
8EE-/L	.	[4B-/ 4g	.	[4ee-\	>
8E-\	.	.	.	.	.
8E-\J	.	8B-/] 8g	.	16ee-\LL]	.
.	.	.	.	(16b-\	.
8r	.	8r	.	16ee-\	.
.	.	.	.	16gg\JJ)	]]
=3	=3	=3	=3	=3	=3
!	!	!	!	!LO:TX:b:i:t=dol	!
8r	.	8r	.	8.bb-\L	.
8BB-/L	.	8d/L	.	.	.
.	.	.	.	16aa-\Jk	.
8C/	.	8e-/	.	8gg\L	.
.	.	8qqg/	.	8qqbb-/	.
8AA-/J	.	8f/J	.	8aa-\J	.
=4	=4	=4	=4	=4	=4
!LO:TX:t=P:problem:mixed beam	!	!	!	!	!
8BB-/L	.	(4e-/	.	(4gg\	.
8A-\	.	.	.	.	.
.	.	.	.	16qqff/LL	.
.	.	.	.	16qqaa-/	.
.	.	.	.	16qqgg/JJ	.
8BB-/J	.	8d/)	.	8ff\)	.
8r	.	8r	.	8r	.
!	!	!	!	!LO:LB:g=original	!
=5	=5	=5	=5	=5	=5
!	!	!	!	!LO:TX:b:i:t=rinf	!
4A-\	.	[2cc\	<	4ff\	.
4En\	.	.	.	4gg\	.
=6	=6	=6	=6	=6	=6
4F\	.	8cc\]	.	(8.aa-\L	>
.	.	8r	[	.	.
.	.	.	.	16ccc\Jk)	.
4r	.	4r	.	16bb-\LL	.
.	.	.	.	16aa-\	.
.	.	.	.	16gg\	.
.	.	.	.	16ff\JJ	]]
=7	=7	=7	=7	=7	=7
.	.	.	.	8qqff/	p
4B-\	.	4g/	.	8ee-\L	.
.	.	.	.	8ee-\J	.
.	.	.	.	8qqgg/	.
4BB-/	.	4a-/	.	16.ff\LL	.
.	.	.	.	32ee-\K	.
.	.	.	.	16.ff\	.
.	.	.	.	32gg\JJk	.
=8	=8	=8	=8	=8	=8
8E-\L	.	8B-/L 8g	.	4ee-\	.
8EE-/	.	8B-/ 8g	.	.	.
8EE-/J	.	8B-/J 8g	.	8r	.
!	!	!	!	!	!LO:DY:b:t=F
8r	.	8r	.	16.gg\LL	f
.	.	.	.	32gg\JJk	.
=9	=9	=9	=9	=9	=9
8BBn/	.	16r	.	8.gg\L	.
.	.	(16d/LL	.	.	.
8r	.	16g/	.	.	.
.	.	16d/JJ)	.	16aa-\Jk	.
.	.	.	.	8qqaa-/	.
8BB/	.	16r	.	16gg\LL	.
.	.	(16d/LL	.	16ff\	.
.	.	.	.	8qqff/	.
8r	.	16g/	.	16ee-\	.
.	.	16d/JJ)	.	16dd\JJ	.
!	!	!LO:LB:g=original	!	!LO:LB:g=original	!
=10	=10	=10	=10	=10	=10
.	.	.	.	8qqdd/	.
8C/	.	16r	.	16ff\LL	.
.	.	(16d/LL	.	16ee-\JJ	.
8r	.	16g/	.	16r	.
.	.	16d/JJ)	.	16ee-\	.
.	.	.	.	16qqff/LL	p
.	.	.	.	16qqgg/JJ	.
8C/	.	16r	.	16ff\LL	.
.	.	(16d/LL	.	16ee-\	.
.	.	.	.	8qqee-/	.
8r	.	16g/	.	16dd\	.
.	.	16d/JJ)	.	16cc\JJ	.
=11	=11	=11	=11	=11	=11
8F\	.	16r	.	(16b-\LL	.
.	.	(16c/LL	.	16an\J)	.
8r	.	16f/	.	[8eee-\J	.
.	.	16c/JJ)	.	.	.
8AAn/	.	16r	.	32eee-\LLL]	>
.	.	.	.	(32ccc\	.
.	.	(16c/LL	.	32aa-\	.
.	.	.	.	32bb-\	.
8r	.	16f/	.	32ccc\	.
.	.	.	.	32aa-\	.
.	.	16c/JJ)	.	32ff\	.
.	.	.	.	32ee-\JJJ)	]]
!LO:LB:g=original	!	!	!	!	!
=12	=12	=12	=12	=12	=12
8BB-/	.	16r	.	(8.ff\L	p
.	.	(<16B-/LL	.	.	.
8r	.	16d/	.	.	.
*	*	*	*	*Xtuplet	*
.	.	16f/JJ	.	48ee-\LL	.
.	.	.	.	48dd\	.
.	.	.	.	8qqff/	.
.	.	.	.	48ee-\JJJ	.
8BB-/	.	8b-\)	.	16dd\LL)	<
.	.	.	.	16bb-'\	.
8r	.	8r	.	16bb-'\	.
.	.	.	.	16bb-'\JJ	[[
!	!	!	!	!LO:LB:g=original	!
=13	=13	=13	=13	=13	=13
!LO:TX:b:i:t=rinf	!	!	!	!LO:TX:b:i:t=rinf	!
.	.	.	.	8qqbb-/	.
!	!	!	!LO:DY:b:t=F	!	!
[2G-X\	.	(16b-\LL	f	4.ddd-X\	.
.	.	16dd-X\	.	.	.
.	.	16b-\	.	.	.
.	.	16dd-\JJ)	.	.	.
.	.	(16b-\LL	.	.	.
.	.	16dd-\	.	.	.
.	.	.	.	8qqccc-X/	.
.	.	16b-\	.	8bb-\	.
.	.	16dd-\JJ)	.	.	.
=14	=14	=14	=14	=14	=14
2G-\_	.	(16b-\LL	.	(16aa-X\LL	.
.	.	16dd-X\	.	16gg-X\J)	.
.	.	16b-\	.	[8gg-\J	.
.	.	16dd-\JJ)	.	.	.
.	.	(16b-\LL	.	16gg-\LL]	.
.	.	16dd-\	.	(16gg-\	.
.	.	16b-\	.	16bb-\	.
.	.	16dd-\JJ)	.	16gg-\JJ)	.
!	!	!LO:LB:g=original	!	!	!
=15	=15	=15	=15	=15	=15
8G-X\L]	>	(16b-\LL	>	16ff\LL	.
.	.	16dd-X\	.	16een\J	.
8G-\	.	16b-\	.	8.ee\J	.
.	.	16dd-\JJ)	.	.	.
8G-\	.	(16b-\LL	.	.	.
.	.	16dd-\	.	16ddd\LL	.
8G-\J	]]	16b-\	.	16bb-\	.
.	.	16dd-\JJ)	]]	16ee\JJ	.
=16	=16	=16	=16	=16	=16
.	.	.	.	8qqee-/	.
4F;\	.	4f;/ 4an	.	4ffT;\	.
4r	.	4r	.	4r	.
=17	=17	=17	=17	=17	=17
!	!	!	!	!LO:TX:a:i:t=dol	!
[2B-\	p	(16b-/LL	pp	(8.ddn\L	.
.	.	16f/	.	.	.
.	.	16d/	.	.	.
.	.	16f/JJ)	.	32ee-\LL	.
.	.	.	.	32cc\JJJ)	.
.	.	(16d/LL	.	8b-'\L	.
.	.	16f/	.	.	.
.	.	16an/	.	8cc'\J	.
.	.	16f/JJ)	.	.	.
!	!	!	!	!LO:LB:g=original	!
=18	=18	=18	=18	=18	=18
2B-\]	.	(16b-/LL	.	(8.dd\L	.
.	.	16f/	.	.	.
.	.	16d/	.	.	.
.	.	16f/JJ)	.	32ee-\LL	.
.	.	.	.	32cc\JJJ)	.
.	.	.	.	8qqcc/	.
.	.	(16b-/LL	.	8ff\	.
.	.	16f/	.	.	.
.	.	16d/	.	8r	.
.	.	16f/JJ)	.	.	.
=19	=19	=19	=19	=19	=19
4An\	.	(16cc/LL	.	8.ee-T\L	.
.	.	16f/	.	.	.
.	.	16cc/	.	.	.
.	.	16f/JJ)	.	16ff\Jk	.
4B-\	.	(16b-/LL	.	8.ddt\L	.
.	.	16f/	.	.	.
.	.	16b-/	.	.	.
.	.	.	.	8qqff/	.
.	.	16f/JJ)	.	16ee-\Jk	.
=20	=20	=20	=20	=20	=20
!LO:TX:t=P:problem:mixed beam	!	!	!	!	!
8F\L	.	(16b-/LL	.	(4dd\	.
.	.	16f/	.	.	.
8FF/	.	16b-/	.	.	.
.	.	16f/JJ)	.	.	.
.	.	.	.	16qqcc/LL	.
.	.	.	.	16qqee-/	.
.	.	.	.	16qqdd/JJ	.
8F\J	.	(16an/LL	.	8cc\)	.
.	.	16f/	.	.	.
8r	.	16a/	.	8r	.
.	.	16f/JJ)	.	.	.
!	!	!LO:LB:g=original	!	!	!
=21	=21	=21	=21	=21	=21
!	!	!	!	!LO:TX:b:i:t=rinf	!
4F#X\	.	16r	.	4cc\	.
.	.	(16d/LL	.	.	.
.	.	16an/	.	.	.
.	.	16g/JJ	.	.	.
4D\	.	8f#X/)	.	16r	.
.	.	.	.	(16an/LL	>
.	.	8r	.	16dd/	.
.	.	.	.	16cc/JJ)	.
=22	=22	=22	=22	=22	=22
4G\	.	16r	.	4b-\	]]
.	.	(16d/LL	.	.	.
.	.	16g/	.	.	.
.	.	16fn/JJ	.	.	.
8C\L	.	8en/L)	.	16r	.
.	.	.	.	(16g/LL	<
8En\J	.	[8c/J	.	16cc/	.
.	.	.	.	16b-/JJ)	[[
!	!	!	!	!LO:LB:g=original	!
=23	=23	=23	=23	=23	=23
!	!	!	!	!	!LO:DY:b:t=F
4Fn\	.	8c/L]	.	(16an\LL	f
.	.	.	.	16cc\	.
.	.	(16an/L	.	16ff\	.
.	.	16cc/JJ)	.	16aa-\JJ)	.
!LO:TX:t=P:problem:mixed beam	!	!	!	!	!
8c\L	.	(16cc/LL	.	(16aa-\LL	.
.	.	16b-/	.	16gg\	.
8C/J	.	16a/	.	16ff\	.
.	.	16g/JJ)	.	16een\JJ)	.
=24	=24	=24	=24	=24	=24
4F'\	pp	8a-'/L	pp	16gg'\KL	>
.	.	.	.	8ff'\	.
.	.	8b-'/	.	.	.
.	.	.	.	8een'\	.
8G'\L	.	8cc'/	.	.	.
.	.	.	.	(16ee-X\L	.
8An'\J	.	[8f'/J	.	16ff\	.
.	.	.	.	16ee-\JJ)	]]
=25	=25	=25	=25	=25	=25
!	!	!LO:TX:t=P:problem: X zapisany ołówkiem	!	!	!
!	!	!LO:TX:a:t=X:color=grey	!	!	!
[2B-\	.	16f/LL]	.	(8.dd\L	.
.	.	16f/	p	.	.
.	.	16f/	.	.	.
.	.	16f/JJ	.	32ee-\LL	.
.	.	.	.	32cc\JJJ)	.
.	.	(16d/LL	.	8b-'\L	.
.	.	16f/	.	.	.
.	.	16an/	.	8cc'\J	.
.	.	16f/JJ)	.	.	.
!LO:LB:g=original	!	!LO:LB:g=original	!	!	!
=26	=26	=26	=26	=26	=26
2B-\]	.	(16b-/LL	.	(8.dd\L	.
.	.	16f/	.	.	.
.	.	16d/	.	.	.
.	.	16f/JJ)	.	32ee-\LL	.
.	.	.	.	32cc\JJJ	.
.	.	.	.	8qqcc/	.
.	.	(16d/LL	.	8ff\)	.
.	.	16f/	.	.	.
.	.	16b-/	.	8r	.
.	.	16f/JJ)	.	.	.
!	!	!	!	!LO:LB:g=original	!
=27	=27	=27	=27	=27	=27
4An\	.	(16cc/LL	.	8.ee-T\L	.
.	.	16f/	.	.	.
.	.	16cc/	.	.	.
.	.	16f/JJ)	.	16ff\Jk	.
4B-\	.	(16b-/LL	.	8.ddt\L	.
.	.	16f/	.	.	.
.	.	16b-/	.	.	.
.	.	16f/JJ)	.	16ee-\Jk	.
=28	=28	=28	=28	=28	=28
!LO:TX:t=P:problem:mixed beam	!	!	!	!	!
8F\L	.	(16b-/LL	.	(4dd\	.
.	.	16f/	.	.	.
8FF/	.	16b-/	.	.	.
.	.	16f/JJ)	.	.	.
.	.	.	.	16qqcc/LL	.
.	.	.	.	16qqee-/	.
.	.	.	.	16qqdd/JJ	.
8F\J	.	(16an/LL	.	8cc\)	.
.	.	16f/	.	.	.
8r	.	16a/	.	8r	.
.	.	16f/JJ)	.	.	.
=29	=29	=29	=29	=29	=29
(4F\	.	(16c/LL	.	8.ee-\L	.
.	.	16An/	.	.	.
.	.	16c/	.	.	.
!	!	!	!	!LO:TX:b:i:t=rinf	!
.	.	16A/JJ)	.	16cc\Jk	.
!LO:TX:b:i:t=rinf	!	!	!	!	!
4E-X\)	.	(16f/LL	.	8.an/L	.
.	.	16c/	.	.	.
.	.	16f/	.	.	.
.	.	16c/JJ)	.	16f/Jk	.
=30	=30	=30	=30	=30	=30
4D\	.	4B-/ 4f	.	(32b-\LLL	.
.	.	.	.	32cc\	.
.	.	.	.	32b-\	.
.	.	.	.	32an\	.
.	.	.	.	32b-\	.
.	.	.	.	32f\)	.
.	.	.	.	(32g'\	.
.	.	.	.	32a'\JJJ	.
4r	.	4r	.	32b-'\LLL	.
.	.	.	.	32cc'\	.
.	.	.	.	32dd'\	.
.	.	.	.	32ee-'\	.
.	.	.	.	32ff'\	.
.	.	.	.	32gg'\	.
.	.	.	.	32aa-'\	.
.	.	.	.	32bb-'\JJJ)	.
!	!	!	!	!LO:LB:g=original	!
=31	=31	=31	=31	=31	=31
.	.	.	.	8qqff#X/	p
8r	.	8r	.	(8.gg\L	.
8E-\L	pp	8c/L	pp	.	.
.	.	.	.	32ee-\LL	.
.	.	.	.	32cc\JJJ)	.
8F\	.	8d/	.	8b-\L	.
.	.	8qqf/	.	8qqdd/	.
8FF/J	.	8e-/J	.	8cc\J	.
!	!	!LO:LB:g=original	!	!	!
=32	=32	=32	=32	=32	=32
8BB-/L	.	4d/	.	[4b-\	.
8B-\J	.	.	.	.	.
4r	.	16d/LL	<	16b-\LL]	<
.	.	(16b-/	.	(16b-\	.
.	.	16an/	.	16cc\	.
.	.	16a-X/JJ)	[[	16dd\JJ)	[[
=33	=33	=33	=33	=33	=33
!	!	!LO:TX:a:i:t=rinf	!	!	!LO:DY:b:t=F
4E-\	.	4B-/ 4g	.	4ee-\	f
!LO:TX:b:i:t=rinf	!	!	!	!	!
4BB-/	.	4B-/ 4a-	.	8.ff\L	.
.	.	.	.	16gg\Jk	.
=34	=34	=34	=34	=34	=34
16EE-/LL	.	[4B-/ 4g	.	[4ee-\	.
16E-/	.	.	.	.	.
16BB-/	.	.	.	.	.
16GG/JJ	.	.	.	.	.
8EE-/	.	8B-/] 8g	.	16ee-\LL]	.
.	.	.	.	(16b-\	.
8r	.	8r	.	16ee-\	.
.	.	.	.	16gg\JJ)	.
=35	=35	=35	=35	=35	=35
8r	.	8r	.	8.bb-\L	p
8BB-/L	p	8d/L	p	.	.
.	.	.	.	16aa-X\Jk	.
8C/	.	8e-/	.	8gg\L	.
.	.	8qqg/	.	8qqbb-/	.
8AA-/J	.	8f/J	.	8aa-\J	.
!	!	!	!	!LO:LB:g=original	!
=36	=36	=36	=36	=36	=36
8BB-/L	.	(4e-/	.	(4gg\	.
8B-\	.	.	.	.	.
.	.	.	.	16qqff/LL	.
.	.	.	.	16qqaa-/	.
.	.	.	.	16qqgg/JJ	.
8B-\J	.	8d/)	.	8ff\)	.
8r	.	8r	.	8r	.
=37	=37	=37	=37	=37	=37
!LO:TX:b:i:t=rinf	!	!	!	!LO:TX:b:i:t=rinf	!
4A-\	.	[2cc\	<	4ff\	.
4En\	.	.	.	4gg\	.
!LO:LB:g=original	!	!	!	!	!
=38	=38	=38	=38	=38	=38
4F\	.	8cc\]	.	4aa-\	.
.	.	8r	[	.	.
4r	.	4r	.	(16bb-\LL	.
.	.	.	.	16aa-\	.
.	.	.	.	16gg\	.
.	.	.	.	16ff\JJ)	.
=39	=39	=39	=39	=39	=39
.	.	.	.	8qqff/	.
4B-\	p	4g/	p	8ee-\L	.
.	.	.	.	8ee-\J	.
.	.	.	.	8qqgg/	.
4BB-/	.	4a-/	.	16.ff\LL	.
.	.	.	.	32ee-\K	.
.	.	.	.	16.ff\	.
.	.	.	.	32gg\JJk	.
=40	=40	=40	=40	=40	=40
16E-'\LL	.	16g'\LL	.	4ee-\	.
(16G\	.	(16b-\	.	.	.
!LO:TX:b:i:t=rinf	!	!	!	!	!
16A-\	.	16cc\	.	.	.
16G\JJ	.	16b-\JJ	.	.	.
16A-\LL	.	16cc\LL	.	4r	.
16G\	.	16b-\	.	.	.
16F\	.	16a-\	.	.	.
16E-\JJ)	.	16g\JJ)	.	.	.
!	!	!LO:LB:g=original	!	!	!
=41	=41	=41	=41	=41	=41
4B-\	p	4.d/	.	16r	.
.	.	.	.	(16ff\LL 16aa-	<
.	.	.	.	16gg\ 16bb-	.
.	.	.	.	16ff\JJ) 16aa-	.
4BB-/	.	.	.	(16gg\LL 16bb-	.
.	.	.	.	16ff\ 16aa-	.
.	.	(8a-/	.	16ee-\ 16gg	.
.	.	.	.	16dd\JJ) 16ff	.
=42	=42	=42	=42	=42	=42
16E-'\LL	.	16g/LL)	.	4ee-\ 4gg	.
(16G\	.	(16b-/	.	.	.
16A-\	.	16cc/	.	.	.
16G\JJ	.	16b-/JJ	.	.	.
16A-\LL	.	16cc/LL	.	4r	[
16G\	.	16b-/	.	.	.
16F\	.	16a-/	.	.	.
16E-\JJ)	.	16g/JJ)	.	.	.
=43	=43	=43	=43	=43	=43
4B-\	.	4.d/	.	16r	.
.	.	.	.	(16ff\LL 16aa-	p
.	.	.	.	16gg\ 16bb-	.
.	.	.	.	16ff\JJ) 16aa-	.
4BB-/	.	.	.	(16gg\LL 16bb-	.
.	.	.	.	16ff\ 16aa-	.
.	.	8a-/	.	16ee-\ 16gg	.
.	.	.	.	16dd\JJ) 16ff	.
=44	=44	=44	=44	=44	=44
!	!LO:DY:b:t=F	!	!	!	!LO:DY:b:t=F
16E-\LL	f	8g/	.	16ee-\KL 16gg	f
16G\	.	.	.	8ee-\ 8gg	.
16E-\	.	8r	.	.	.
16D\JJ	.	.	.	8ee-\ 8gg	.
!	!	!	!LO:DY:b:t=F	!	!
16C/LL	.	16e-/LL	f	.	.
16E-/	.	16g/	.	8ee-\ 8gg	.
16C/	.	16e-/	.	.	.
16AAn/JJ	.	16c/JJ	.	16ee-\Jk 16gg	.
=45	=45	=45	=45	=45	=45
4BB-;/	.	4B-;/	.	4ee-;\ 4gg	.
4r;	.	4r;	.	4ddt;\ 4ff	.
=46	=46	=46	=46	=46	=46
8E-'\	.	8B-/ 8g	p	8ee-\	.
8r	.	8r	.	8r	.
8EE-/L	p	8B-/L 8g	.	8ee-\L	p
8EE-/J	.	8B-/J 8g	.	8ee-\J	.
=47	=47	=47	=47	=47	=47
4EE-/	.	4B-/ 4g	.	4ee-\	.
4r	.	4r	.	4r	.
==	==	==	==	==	==
*-	*-	*-	*-	*-	*-
!!!system-decoration: [(s1,s2,s3)]
!!!RDF**kern: > = above
!!!RDF**kern: < = below
!!!ENC: Marta Opryszak
!!!END: 2022-05-23
!!!ENC: Jan Barakat
!!!END: 2022-07-01
